assets/images/add-bg.svg

<svg width="1300" height="375" fill="none" xmlns="http://www.w3.org/2000/svg"><mask id="a" style="mask-type:luminance" maskUnits="userSpaceOnUse" x="0" y="0" width="1300" height="375"><path d="M1300 0H0v375h1300V0Z" fill="#fff"/></mask><g mask="url(#a)"><path d="M1300 0H0v375h1300V0Z" fill="#E48717"/><g opacity=".5"><path d="M1730.75 376.465H491.601L751.957 0h978.793v376.465Z" fill="#FF9B01"/><path d="M816.657-3.766h-48.009L507.236 375.068h48.013L816.657-3.766Z" fill="#E07F09" fill-opacity=".9"/><path d="M811.883-3.766h4.773L555.249 375.068h-4.776L811.883-3.766Z" fill="#E07F09" fill-opacity=".9"/><path d="M769.799-3.766h-1.151L507.236 375.068h1.152L769.799-3.766ZM773.713-3.766h-1.151L511.153 375.068h1.152L773.713-3.766ZM777.633-3.766h-1.151L515.07 375.068h1.152L777.633-3.766ZM781.547-3.766h-1.151L518.987 375.068h1.152L781.547-3.766ZM785.468-3.766h-1.151L522.904 375.068h1.153L785.468-3.766ZM789.382-3.766h-1.151l-261.41 378.834h1.152L789.382-3.766ZM793.302-3.766h-1.151L530.739 375.068h1.151L793.302-3.766Z" fill="#C8500D" fill-opacity=".6"/><path d="M1262.89-3.766h-249.86L751.618 375.068h249.862L1262.89-3.766ZM987.971-3.766H816.284L554.873 375.068h171.691L987.971-3.766ZM1342.09-3.766h-70.06l-261.41 378.834h70.06L1342.09-3.766Z" fill="#E07F09" fill-opacity=".9"/><path d="M1119.97 375.067h-1.15l103.41-149.852v1.669l-102.26 148.183ZM1123.89 375.067h-1.15l99.49-144.175v1.669l-98.34 142.506ZM1127.9 375.067h-1.15l103.41-149.852v1.669L1127.9 375.067ZM1131.82 375.067h-1.16l99.49-144.175v1.669l-98.33 142.506Z" fill="#C8500D" fill-opacity=".6"/><path d="M312.014-3.766h3.271L-55.893 534.041h-3.272L312.014-3.766ZM300.89-3.766h3.272l-371.18 537.807h-3.271L300.89-3.766ZM289.766-3.766h3.272l-371.18 537.807h-3.271L289.766-3.766ZM278.642-3.766h3.272l-371.18 537.807h-3.271L278.642-3.766ZM267.518-3.766h3.272l-371.179 537.807h-3.272L267.518-3.766ZM256.394-3.766h3.272l-371.179 537.807h-3.271L256.394-3.766ZM245.27-3.766h3.272l-371.179 537.807h-3.271L245.27-3.766ZM234.146-3.766h3.272l-371.179 537.807h-3.271L234.146-3.766ZM223.023-3.766h3.271l-371.179 537.807h-3.271L223.023-3.766ZM211.899-3.766h3.271l-371.178 537.807h-3.272L211.899-3.766ZM200.775-3.766h3.271l-371.178 537.807h-3.272L200.775-3.766ZM189.651-3.766h3.271l-371.178 537.807h-3.272L189.651-3.766ZM178.527-3.766h3.271L-189.38 534.041h-3.272L178.527-3.766ZM167.403-3.766h3.272l-371.179 537.807h-3.272L167.403-3.766ZM156.279-3.766h3.272l-371.179 537.807h-3.272L156.279-3.766ZM145.155-3.766h3.272l-371.179 537.807h-3.272L145.155-3.766ZM134.031-3.766h3.272l-371.179 537.807h-3.272L134.031-3.766ZM122.907-3.766h3.272L-245 534.041h-3.272L122.907-3.766ZM111.783-3.766h3.272l-371.179 537.807h-3.272L111.783-3.766ZM100.659-3.766h3.272l-371.179 537.807h-3.272L100.659-3.766ZM89.535-3.766h3.272l-371.179 537.807h-3.272L89.536-3.766ZM78.411-3.766h3.272l-371.179 537.807h-3.271L78.411-3.766ZM67.288-3.766h3.271l-371.178 537.807h-3.272L67.288-3.766ZM56.164-3.766h3.271l-371.178 537.807h-3.272L56.164-3.766ZM45.04-3.766h3.272l-371.179 537.807h-3.272L45.04-3.766ZM33.916-3.766h3.272l-371.179 537.807h-3.271L33.916-3.766ZM22.792-3.766h3.272l-371.179 537.807h-3.271L22.792-3.766ZM11.668-3.766h3.272L-356.24 534.041h-3.271L11.668-3.766ZM.544-3.766h3.272l-371.178 537.807h-3.272L.544-3.766ZM446.422 148.158h-1.152L183.859 526.992h1.152l261.411-378.834ZM450.338 148.158h-1.151l-261.41 378.834h1.151l261.41-378.834ZM454.256 148.158h-1.152l-261.41 378.834h1.152l261.41-378.834ZM458.173 148.158h-1.152L195.61 526.992h1.153l261.41-378.834ZM462.09 148.158h-1.152l-261.41 378.834h1.152l261.41-378.834ZM466.007 148.158h-1.152l-261.41 378.834h1.152l261.41-378.834ZM469.924 148.158h-1.152l-261.41 378.834h1.152l261.41-378.834ZM473.841 148.158h-1.152l-261.41 378.834h1.152l261.41-378.834ZM477.759 148.158h-1.153l-261.41 378.834h1.152l261.411-378.834ZM481.676 148.158h-1.152l-261.41 378.834h1.152l261.41-378.834ZM485.592 148.158h-1.151L223.03 526.992h1.152l261.41-378.834ZM489.51 148.158h-1.152l-261.41 378.834h1.152l261.41-378.834ZM493.427 148.158h-1.152l-261.41 378.834h1.152l261.41-378.834ZM403.333 148.158h-1.152l-261.41 378.834h1.152l261.41-378.834ZM407.25 148.158h-1.152l-261.41 378.834h1.152l261.41-378.834ZM411.167 148.158h-1.152l-261.41 378.834h1.152l261.41-378.834ZM415.085 148.158h-1.152L152.522 526.992h1.152l261.411-378.834ZM419.002 148.158h-1.152L156.44 526.992h1.151l261.411-378.834ZM422.919 148.158h-1.152l-261.41 378.834h1.151l261.411-378.834ZM426.836 148.158h-1.152l-261.41 378.834h1.152l261.41-378.834ZM430.753 148.158h-1.152L168.19 526.992h1.153l261.41-378.834ZM434.67 148.158h-1.152l-261.41 378.834h1.152l261.41-378.834ZM438.587 148.158h-1.152l-261.41 378.834h1.152l261.41-378.834ZM442.504 148.158h-1.152l-261.41 378.834h1.152l261.41-378.834Z" fill="#D36611"/><path d="M446.422 148.158h-1.152L183.859 526.992h1.152l261.411-378.834ZM450.338 148.158h-1.151l-261.41 378.834h1.151l261.41-378.834ZM540.432 148.158h-1.152L277.87 526.992h1.152l261.41-378.834ZM544.349 148.158h-1.151L281.787 526.992h1.152l261.41-378.834ZM548.267 148.158h-1.152L285.704 526.992h1.153l261.41-378.834ZM552.184 148.158h-1.152l-261.41 378.834h1.152l261.41-378.834ZM556.101 148.158h-1.152l-261.41 378.834h1.152l261.41-378.834ZM560.018 148.158h-1.152l-261.41 378.834h1.152l261.41-378.834ZM563.935 148.158h-1.152l-261.41 378.834h1.152l261.41-378.834ZM567.852 148.158H566.7L305.29 526.992h1.152l261.41-378.834ZM571.769 148.158h-1.151L309.207 526.992h1.152l261.41-378.834ZM575.687 148.158h-1.152L313.124 526.992h1.153l261.41-378.834ZM579.604 148.158h-1.152l-261.41 378.834h1.152l261.41-378.834ZM583.521 148.158h-1.152l-261.41 378.834h1.152l261.41-378.834ZM587.438 148.158h-1.152l-261.41 378.834h1.152l261.41-378.834ZM497.344 148.158h-1.152l-261.41 378.834h1.152l261.41-378.834ZM501.262 148.158h-1.153l-261.41 378.834h1.152l261.411-378.834ZM505.178 148.158h-1.152l-261.41 378.834h1.152l261.41-378.834ZM509.095 148.158h-1.152l-261.41 378.834h1.152l261.41-378.834ZM513.012 148.158h-1.151L250.45 526.992h1.152l261.41-378.834ZM516.93 148.158h-1.152L254.367 526.992h1.153l261.41-378.834ZM520.847 148.158h-1.152l-261.41 378.834h1.152l261.41-378.834ZM524.764 148.158h-1.152l-261.41 378.834h1.152l261.41-378.834ZM528.681 148.158h-1.152l-261.41 378.834h1.152l261.41-378.834ZM532.598 148.158h-1.152l-261.41 378.834h1.152l261.41-378.834ZM536.515 148.158h-1.152l-261.41 378.834h1.152l261.41-378.834Z" fill="#D36611"/><path d="M540.432 148.158h-1.152L277.87 526.992h1.152l261.41-378.834ZM544.349 148.158h-1.151L281.787 526.992h1.152l261.41-378.834Z" fill="#D36611"/><g opacity=".6" fill="#C8500D"><path d="M1324.47-234.793h-2.27L807.82 510.645h2.268l514.382-745.438ZM1332.18-234.793h-2.27L815.526 510.645h2.268l514.386-745.438ZM1339.88-234.793h-2.26L823.238 510.645h2.262l514.38-745.438ZM1347.59-234.793h-2.27L830.944 510.645h2.269l514.377-745.438ZM1355.3-234.793h-2.27L838.65 510.645h2.268L1355.3-234.793ZM1363.01-234.793h-2.27L846.356 510.645h2.268l514.386-745.438ZM1370.71-234.793h-2.26L854.068 510.645h2.269l514.373-745.438Z"/></g><g opacity=".6" fill="#C8500D"><path d="M1377.76-234.793h-2.27L861.117 510.645h2.269l514.374-745.438ZM1385.47-234.793h-2.26L868.823 510.645h2.268l514.379-745.438ZM1393.18-234.793h-2.27L876.529 510.645h2.268l514.383-745.438ZM1400.89-234.793h-2.27L884.241 510.645h2.262l514.387-745.438ZM1408.59-234.793h-2.26L891.947 510.645h2.269l514.374-745.438ZM1416.31-234.793h-2.27L899.653 510.645h2.268l514.389-745.438ZM1424.01-234.793h-2.27L907.365 510.645h2.262l514.383-745.438Z"/></g><path d="M1734.82-3.766h-385.26l-261.41 378.834h385.27l261.4-378.834Z" fill="#E07F09" fill-opacity=".9"/><path opacity=".6" fill-rule="evenodd" clip-rule="evenodd" d="M1211.99 244.071h-1.15l240.33-348.285h1.16l-240.34 348.285Zm3.92 0h-1.15l240.33-348.285h1.15l-240.33 348.285Zm3.92 0h-1.15l240.33-348.285h1.15l-240.33 348.285Zm3.92 0h-1.15l240.33-348.285h1.15l-240.33 348.285Zm3.91 0h-1.15l240.33-348.285h1.16l-240.34 348.285Zm3.92 0h-1.15l240.33-348.285h1.15l-240.33 348.285Zm3.92 0h-1.15l240.32-348.285h1.16L1235.5 244.071Zm3.92 0h-1.15l240.33-348.285h1.15l-240.33 348.285Zm3.91 0h-1.15l240.33-348.285h1.15l-240.33 348.285Zm3.92 0h-1.16l240.34-348.285h1.15l-240.33 348.285Zm3.92 0h-1.15l240.32-348.285h1.15l-240.32 348.285Zm3.92 0h-1.16l240.33-348.285h1.15l-240.32 348.285Zm3.91 0h-1.15l240.33-348.285h1.15L1259 244.071Zm3.92 0h-1.16l240.34-348.285h1.15l-240.33 348.285Zm3.92 0h-1.16l240.33-348.285h1.15l-240.32 348.285Zm3.92 0h-1.16l240.33-348.285h1.15l-240.32 348.285Zm3.91 0h-1.15l240.33-348.285h1.15l-240.33 348.285Zm3.92 0h-1.16l240.34-348.285h1.15l-240.33 348.285Zm3.91 0h-1.15l240.33-348.285h1.15L1282.5 244.071Zm3.92 0h-1.15l240.33-348.285h1.15l-240.33 348.285Zm3.92 0h-1.15l240.33-348.285h1.15l-240.33 348.285Zm3.91 0h-1.15l240.34-348.285h1.15l-240.34 348.285Zm3.92 0h-1.15l240.33-348.285h1.15l-240.33 348.285Zm3.92 0h-1.15l240.33-348.285h1.15l-240.33 348.285Zm3.92 0h-1.15l240.32-348.285h1.16l-240.33 348.285Zm3.91 0h-1.15l240.33-348.285h1.16l-240.34 348.285Zm3.92 0h-1.15l240.33-348.285h1.15l-240.33 348.285Zm3.92 0h-1.16l240.34-348.285h1.15l-240.33 348.285Zm3.92 0h-1.15l240.32-348.285h1.15l-240.32 348.285Zm3.91 0h-1.15l240.33-348.285h1.15l-240.33 348.285Zm3.92 0h-1.15l240.33-348.285h1.15l-240.33 348.285Zm3.91 0h-1.15l240.33-348.285h1.16l-240.34 348.285Zm3.92 0h-1.15l240.33-348.285h1.15l-240.33 348.285Zm3.92 0h-1.15l240.33-348.285h1.15l-240.33 348.285Zm3.92 0h-1.15l240.33-348.285h1.15l-240.33 348.285Zm3.91 0h-1.15l240.33-348.285h1.16l-240.34 348.285Zm3.92 0h-1.15l240.33-348.285h1.15l-240.33 348.285Zm3.92 0h-1.15l240.32-348.285h1.16l-240.33 348.285Zm3.92 0h-1.15l240.33-348.285h1.15l-240.33 348.285Zm3.91 0h-1.15l240.33-348.285h1.16l-240.34 348.285Zm3.92 0h-1.15l240.33-348.285h1.15l-240.33 348.285Zm3.92 0h-1.15l240.32-348.285h1.15L1372.6 244.071Zm3.92 0h-1.15l240.32-348.285h1.16l-240.33 348.285Z" fill="#C8500D"/></g></g></svg>

<svg width="1300" height="375" viewBox="0 0 1300 375" fill="none" xmlns="http://www.w3.org/2000/svg">
<mask id="mask0_407_6282" style="mask-type:luminance" maskUnits="userSpaceOnUse" x="0" y="0" width="1300" height="375">
<path d="M1300 0H0V375H1300V0Z" fill="white"/>
</mask>
<g mask="url(#mask0_407_6282)">
<path d="M1300 0H0V375H1300V0Z" fill="#E48717"/>
<g opacity="0.5">
<path d="M1730.75 376.465H491.601L751.957 0L1730.75 5.28888e-05V376.465Z" fill="#FF9B01"/>
<path d="M816.657 -3.76562H768.648L507.236 375.068H555.249L816.657 -3.76562Z" fill="#E07F09" fill-opacity="0.9"/>
<path d="M811.883 -3.76562H816.656L555.249 375.068H550.473L811.883 -3.76562Z" fill="#E07F09" fill-opacity="0.9"/>
<path d="M769.799 -3.76562H768.648L507.236 375.068H508.388L769.799 -3.76562Z" fill="#C8500D" fill-opacity="0.6"/>
<path d="M773.713 -3.76562H772.562L511.153 375.068H512.305L773.713 -3.76562Z" fill="#C8500D" fill-opacity="0.6"/>
<path d="M777.633 -3.76562H776.482L515.07 375.068H516.222L777.633 -3.76562Z" fill="#C8500D" fill-opacity="0.6"/>
<path d="M781.547 -3.76562H780.396L518.987 375.068H520.139L781.547 -3.76562Z" fill="#C8500D" fill-opacity="0.6"/>
<path d="M785.468 -3.76562H784.317L522.904 375.068H524.057L785.468 -3.76562Z" fill="#C8500D" fill-opacity="0.6"/>
<path d="M789.382 -3.76562H788.231L526.821 375.068H527.973L789.382 -3.76562Z" fill="#C8500D" fill-opacity="0.6"/>
<path d="M793.302 -3.76562H792.151L530.739 375.068H531.89L793.302 -3.76562Z" fill="#C8500D" fill-opacity="0.6"/>
<path d="M1262.89 -3.76562H1013.03L751.618 375.068H1001.48L1262.89 -3.76562Z" fill="#E07F09" fill-opacity="0.9"/>
<path d="M987.971 -3.76562H816.284L554.873 375.068H726.564L987.971 -3.76562Z" fill="#E07F09" fill-opacity="0.9"/>
<path d="M1342.09 -3.76562H1272.03L1010.62 375.068H1080.68L1342.09 -3.76562Z" fill="#E07F09" fill-opacity="0.9"/>
<path d="M1119.97 375.067H1118.82L1222.23 225.215V226.884L1119.97 375.067Z" fill="#C8500D" fill-opacity="0.6"/>
<path d="M1123.89 375.067H1122.74L1222.23 230.892V232.561L1123.89 375.067Z" fill="#C8500D" fill-opacity="0.6"/>
<path d="M1127.9 375.067H1126.75L1230.16 225.215V226.884L1127.9 375.067Z" fill="#C8500D" fill-opacity="0.6"/>
<path d="M1131.82 375.067H1130.66L1230.15 230.892V232.561L1131.82 375.067Z" fill="#C8500D" fill-opacity="0.6"/>
<path d="M312.014 -3.76562H315.285L-55.8933 534.041H-59.165L312.014 -3.76562Z" fill="#D36611"/>
<path d="M300.89 -3.76562H304.162L-67.0171 534.041H-70.2891L300.89 -3.76562Z" fill="#D36611"/>
<path d="M289.766 -3.76562H293.038L-78.1412 534.041H-81.4131L289.766 -3.76562Z" fill="#D36611"/>
<path d="M278.642 -3.76562H281.914L-89.2652 534.041H-92.5371L278.642 -3.76562Z" fill="#D36611"/>
<path d="M267.518 -3.76562H270.79L-100.389 534.041H-103.661L267.518 -3.76562Z" fill="#D36611"/>
<path d="M256.394 -3.76562H259.666L-111.513 534.041H-114.784L256.394 -3.76562Z" fill="#D36611"/>
<path d="M245.27 -3.76562H248.542L-122.637 534.041H-125.908L245.27 -3.76562Z" fill="#D36611"/>
<path d="M234.146 -3.76562H237.418L-133.761 534.041H-137.032L234.146 -3.76562Z" fill="#D36611"/>
<path d="M223.023 -3.76562H226.294L-144.885 534.041H-148.156L223.023 -3.76562Z" fill="#D36611"/>
<path d="M211.899 -3.76562H215.17L-156.008 534.041H-159.28L211.899 -3.76562Z" fill="#D36611"/>
<path d="M200.775 -3.76562H204.046L-167.132 534.041H-170.404L200.775 -3.76562Z" fill="#D36611"/>
<path d="M189.651 -3.76562H192.922L-178.256 534.041H-181.528L189.651 -3.76562Z" fill="#D36611"/>
<path d="M178.527 -3.76562H181.798L-189.38 534.041H-192.652L178.527 -3.76562Z" fill="#D36611"/>
<path d="M167.403 -3.76562H170.675L-200.504 534.041H-203.776L167.403 -3.76562Z" fill="#D36611"/>
<path d="M156.279 -3.76562H159.551L-211.628 534.041H-214.9L156.279 -3.76562Z" fill="#D36611"/>
<path d="M145.155 -3.76562H148.427L-222.752 534.041H-226.024L145.155 -3.76562Z" fill="#D36611"/>
<path d="M134.031 -3.76562H137.303L-233.876 534.041H-237.148L134.031 -3.76562Z" fill="#D36611"/>
<path d="M122.907 -3.76562H126.179L-245 534.041H-248.272L122.907 -3.76562Z" fill="#D36611"/>
<path d="M111.783 -3.76562H115.055L-256.124 534.041H-259.396L111.783 -3.76562Z" fill="#D36611"/>
<path d="M100.659 -3.76562H103.931L-267.248 534.041H-270.52L100.659 -3.76562Z" fill="#D36611"/>
<path d="M89.5352 -3.76562H92.8071L-278.372 534.041H-281.644L89.5352 -3.76562Z" fill="#D36611"/>
<path d="M78.4113 -3.76562H81.6832L-289.496 534.041H-292.767L78.4113 -3.76562Z" fill="#D36611"/>
<path d="M67.2877 -3.76562H70.5594L-300.619 534.041H-303.891L67.2877 -3.76562Z" fill="#D36611"/>
<path d="M56.1637 -3.76562H59.4355L-311.743 534.041H-315.015L56.1637 -3.76562Z" fill="#D36611"/>
<path d="M45.0398 -3.76562H48.3115L-322.867 534.041H-326.139L45.0398 -3.76562Z" fill="#D36611"/>
<path d="M33.916 -3.76562H37.1877L-333.991 534.041H-337.262L33.916 -3.76562Z" fill="#D36611"/>
<path d="M22.7921 -3.76562H26.0638L-345.115 534.041H-348.386L22.7921 -3.76562Z" fill="#D36611"/>
<path d="M11.668 -3.76562H14.9398L-356.239 534.041H-359.51L11.668 -3.76562Z" fill="#D36611"/>
<path d="M0.54425 -3.76562H3.81598L-367.362 534.041H-370.634L0.54425 -3.76562Z" fill="#D36611"/>
<path d="M446.422 148.158H445.27L183.859 526.992H185.011L446.422 148.158Z" fill="#D36611"/>
<path d="M450.338 148.158H449.187L187.777 526.992H188.928L450.338 148.158Z" fill="#D36611"/>
<path d="M454.256 148.158H453.104L191.694 526.992H192.846L454.256 148.158Z" fill="#D36611"/>
<path d="M458.173 148.158H457.021L195.61 526.992H196.763L458.173 148.158Z" fill="#D36611"/>
<path d="M462.09 148.158H460.938L199.528 526.992H200.68L462.09 148.158Z" fill="#D36611"/>
<path d="M466.007 148.158H464.855L203.445 526.992H204.597L466.007 148.158Z" fill="#D36611"/>
<path d="M469.924 148.158H468.772L207.362 526.992H208.514L469.924 148.158Z" fill="#D36611"/>
<path d="M473.841 148.158H472.689L211.279 526.992H212.431L473.841 148.158Z" fill="#D36611"/>
<path d="M477.759 148.158H476.606L215.196 526.992H216.348L477.759 148.158Z" fill="#D36611"/>
<path d="M481.676 148.158H480.524L219.114 526.992H220.266L481.676 148.158Z" fill="#D36611"/>
<path d="M485.592 148.158H484.441L223.03 526.992H224.182L485.592 148.158Z" fill="#D36611"/>
<path d="M489.51 148.158H488.358L226.948 526.992H228.1L489.51 148.158Z" fill="#D36611"/>
<path d="M493.427 148.158H492.275L230.865 526.992H232.017L493.427 148.158Z" fill="#D36611"/>
<path d="M403.333 148.158H402.181L140.771 526.992H141.923L403.333 148.158Z" fill="#D36611"/>
<path d="M407.25 148.158H406.098L144.688 526.992H145.84L407.25 148.158Z" fill="#D36611"/>
<path d="M411.167 148.158H410.015L148.605 526.992H149.757L411.167 148.158Z" fill="#D36611"/>
<path d="M415.085 148.158H413.933L152.522 526.992H153.674L415.085 148.158Z" fill="#D36611"/>
<path d="M419.002 148.158H417.85L156.44 526.992H157.591L419.002 148.158Z" fill="#D36611"/>
<path d="M422.919 148.158H421.767L160.357 526.992H161.508L422.919 148.158Z" fill="#D36611"/>
<path d="M426.836 148.158H425.684L164.274 526.992H165.426L426.836 148.158Z" fill="#D36611"/>
<path d="M430.753 148.158H429.601L168.19 526.992H169.343L430.753 148.158Z" fill="#D36611"/>
<path d="M434.67 148.158H433.518L172.108 526.992H173.26L434.67 148.158Z" fill="#D36611"/>
<path d="M438.587 148.158H437.435L176.025 526.992H177.177L438.587 148.158Z" fill="#D36611"/>
<path d="M442.504 148.158H441.352L179.942 526.992H181.094L442.504 148.158Z" fill="#D36611"/>
<path d="M446.422 148.158H445.27L183.859 526.992H185.011L446.422 148.158Z" fill="#D36611"/>
<path d="M450.338 148.158H449.187L187.777 526.992H188.928L450.338 148.158Z" fill="#D36611"/>
<path d="M540.432 148.158H539.28L277.87 526.992H279.022L540.432 148.158Z" fill="#D36611"/>
<path d="M544.349 148.158H543.198L281.787 526.992H282.939L544.349 148.158Z" fill="#D36611"/>
<path d="M548.267 148.158H547.115L285.704 526.992H286.857L548.267 148.158Z" fill="#D36611"/>
<path d="M552.184 148.158H551.032L289.622 526.992H290.774L552.184 148.158Z" fill="#D36611"/>
<path d="M556.101 148.158H554.949L293.539 526.992H294.691L556.101 148.158Z" fill="#D36611"/>
<path d="M560.018 148.158H558.866L297.456 526.992H298.608L560.018 148.158Z" fill="#D36611"/>
<path d="M563.935 148.158H562.783L301.373 526.992H302.525L563.935 148.158Z" fill="#D36611"/>
<path d="M567.852 148.158H566.7L305.29 526.992H306.442L567.852 148.158Z" fill="#D36611"/>
<path d="M571.769 148.158H570.618L309.207 526.992H310.359L571.769 148.158Z" fill="#D36611"/>
<path d="M575.687 148.158H574.535L313.124 526.992H314.277L575.687 148.158Z" fill="#D36611"/>
<path d="M579.604 148.158H578.452L317.042 526.992H318.194L579.604 148.158Z" fill="#D36611"/>
<path d="M583.521 148.158H582.369L320.959 526.992H322.111L583.521 148.158Z" fill="#D36611"/>
<path d="M587.438 148.158H586.286L324.876 526.992H326.028L587.438 148.158Z" fill="#D36611"/>
<path d="M497.344 148.158H496.192L234.782 526.992H235.934L497.344 148.158Z" fill="#D36611"/>
<path d="M501.262 148.158H500.109L238.699 526.992H239.851L501.262 148.158Z" fill="#D36611"/>
<path d="M505.178 148.158H504.026L242.616 526.992H243.768L505.178 148.158Z" fill="#D36611"/>
<path d="M509.095 148.158H507.943L246.533 526.992H247.685L509.095 148.158Z" fill="#D36611"/>
<path d="M513.012 148.158H511.861L250.45 526.992H251.602L513.012 148.158Z" fill="#D36611"/>
<path d="M516.93 148.158H515.778L254.367 526.992H255.52L516.93 148.158Z" fill="#D36611"/>
<path d="M520.847 148.158H519.695L258.285 526.992H259.437L520.847 148.158Z" fill="#D36611"/>
<path d="M524.764 148.158H523.612L262.202 526.992H263.354L524.764 148.158Z" fill="#D36611"/>
<path d="M528.681 148.158H527.529L266.119 526.992H267.271L528.681 148.158Z" fill="#D36611"/>
<path d="M532.598 148.158H531.446L270.036 526.992H271.188L532.598 148.158Z" fill="#D36611"/>
<path d="M536.515 148.158H535.363L273.953 526.992H275.105L536.515 148.158Z" fill="#D36611"/>
<path d="M540.432 148.158H539.28L277.87 526.992H279.022L540.432 148.158Z" fill="#D36611"/>
<path d="M544.349 148.158H543.198L281.787 526.992H282.939L544.349 148.158Z" fill="#D36611"/>
<g opacity="0.6">
<path d="M1324.47 -234.793H1322.2L807.82 510.645H810.088L1324.47 -234.793Z" fill="#C8500D"/>
<path d="M1332.18 -234.793H1329.91L815.526 510.645H817.794L1332.18 -234.793Z" fill="#C8500D"/>
<path d="M1339.88 -234.793H1337.62L823.238 510.645H825.5L1339.88 -234.793Z" fill="#C8500D"/>
<path d="M1347.59 -234.793H1345.32L830.944 510.645H833.213L1347.59 -234.793Z" fill="#C8500D"/>
<path d="M1355.3 -234.793H1353.03L838.65 510.645H840.918L1355.3 -234.793Z" fill="#C8500D"/>
<path d="M1363.01 -234.793H1360.74L846.356 510.645H848.624L1363.01 -234.793Z" fill="#C8500D"/>
<path d="M1370.71 -234.793H1368.45L854.068 510.645H856.337L1370.71 -234.793Z" fill="#C8500D"/>
</g>
<g opacity="0.6">
<path d="M1377.76 -234.793H1375.49L861.117 510.645H863.386L1377.76 -234.793Z" fill="#C8500D"/>
<path d="M1385.47 -234.793H1383.21L868.823 510.645H871.091L1385.47 -234.793Z" fill="#C8500D"/>
<path d="M1393.18 -234.793H1390.91L876.529 510.645H878.797L1393.18 -234.793Z" fill="#C8500D"/>
<path d="M1400.89 -234.793H1398.62L884.241 510.645H886.503L1400.89 -234.793Z" fill="#C8500D"/>
<path d="M1408.59 -234.793H1406.33L891.947 510.645H894.216L1408.59 -234.793Z" fill="#C8500D"/>
<path d="M1416.31 -234.793H1414.04L899.653 510.645H901.921L1416.31 -234.793Z" fill="#C8500D"/>
<path d="M1424.01 -234.793H1421.74L907.365 510.645H909.627L1424.01 -234.793Z" fill="#C8500D"/>
</g>
<path d="M1734.82 -3.76562H1349.56L1088.15 375.068H1473.42L1734.82 -3.76562Z" fill="#E07F09" fill-opacity="0.9"/>
<path opacity="0.6" fill-rule="evenodd" clip-rule="evenodd" d="M1211.99 244.071H1210.84L1451.17 -104.214H1452.33L1211.99 244.071ZM1215.91 244.071H1214.76L1455.09 -104.214H1456.24L1215.91 244.071ZM1219.83 244.071H1218.68L1459.01 -104.214H1460.16L1219.83 244.071ZM1223.75 244.071H1222.6L1462.93 -104.214H1464.08L1223.75 244.071ZM1227.66 244.071H1226.51L1466.84 -104.214H1468L1227.66 244.071ZM1231.58 244.071H1230.43L1470.76 -104.214H1471.91L1231.58 244.071ZM1235.5 244.071H1234.35L1474.67 -104.214H1475.83L1235.5 244.071ZM1239.42 244.071H1238.27L1478.6 -104.214H1479.75L1239.42 244.071ZM1243.33 244.071H1242.18L1482.51 -104.214H1483.66L1243.33 244.071ZM1247.25 244.071H1246.09L1486.43 -104.214H1487.58L1247.25 244.071ZM1251.17 244.071H1250.02L1490.34 -104.214H1491.49L1251.17 244.071ZM1255.09 244.071H1253.93L1494.26 -104.214H1495.41L1255.09 244.071ZM1259 244.071H1257.85L1498.18 -104.214H1499.33L1259 244.071ZM1262.92 244.071H1261.76L1502.1 -104.214H1503.25L1262.92 244.071ZM1266.84 244.071H1265.68L1506.01 -104.214H1507.16L1266.84 244.071ZM1270.76 244.071H1269.6L1509.93 -104.214H1511.08L1270.76 244.071ZM1274.67 244.071H1273.52L1513.85 -104.214H1515L1274.67 244.071ZM1278.59 244.071H1277.43L1517.77 -104.214H1518.92L1278.59 244.071ZM1282.5 244.071H1281.35L1521.68 -104.214H1522.83L1282.5 244.071ZM1286.42 244.071H1285.27L1525.6 -104.214H1526.75L1286.42 244.071ZM1290.34 244.071H1289.19L1529.52 -104.214H1530.67L1290.34 244.071ZM1294.25 244.071H1293.1L1533.44 -104.214H1534.59L1294.25 244.071ZM1298.17 244.071H1297.02L1537.35 -104.214H1538.5L1298.17 244.071ZM1302.09 244.071H1300.94L1541.27 -104.214H1542.42L1302.09 244.071ZM1306.01 244.071H1304.86L1545.18 -104.214H1546.34L1306.01 244.071ZM1309.92 244.071H1308.77L1549.1 -104.214H1550.26L1309.92 244.071ZM1313.84 244.071H1312.69L1553.02 -104.214H1554.17L1313.84 244.071ZM1317.76 244.071H1316.6L1556.94 -104.214H1558.09L1317.76 244.071ZM1321.68 244.071H1320.53L1560.85 -104.214H1562L1321.68 244.071ZM1325.59 244.071H1324.44L1564.77 -104.214H1565.92L1325.59 244.071ZM1329.51 244.071H1328.36L1568.69 -104.214H1569.84L1329.51 244.071ZM1333.42 244.071H1332.27L1572.6 -104.214H1573.76L1333.42 244.071ZM1337.34 244.071H1336.19L1576.52 -104.214H1577.67L1337.34 244.071ZM1341.26 244.071H1340.11L1580.44 -104.214H1581.59L1341.26 244.071ZM1345.18 244.071H1344.03L1584.36 -104.214H1585.51L1345.18 244.071ZM1349.09 244.071H1347.94L1588.27 -104.214H1589.43L1349.09 244.071ZM1353.01 244.071H1351.86L1592.19 -104.214H1593.34L1353.01 244.071ZM1356.93 244.071H1355.78L1596.1 -104.214H1597.26L1356.93 244.071ZM1360.85 244.071H1359.7L1600.03 -104.214H1601.18L1360.85 244.071ZM1364.76 244.071H1363.61L1603.94 -104.214H1605.1L1364.76 244.071ZM1368.68 244.071H1367.53L1607.86 -104.214H1609.01L1368.68 244.071ZM1372.6 244.071H1371.45L1611.77 -104.214H1612.92L1372.6 244.071ZM1376.52 244.071H1375.37L1615.69 -104.214H1616.85L1376.52 244.071Z" fill="#C8500D"/>
</g>
</g>
</svg>
